packages/ui/assets/svg/partner_cronos.svg

<svg class="partner-size" width="153" height="43" viewBox="0 0 153 43" fill="none" xmlns="http://www.w3.org/2000/svg">
<g id="partner_cronos" clip-path="url(#clip0_212_2)">
<g id="Group">
<path id="Vector" d="M18.3885 0L-1.52588e-05 10.6927V32.0708L18.3885 42.7563L36.7627 32.0708V10.6927L18.3885 0ZM31.3187 28.9032L18.3885 36.421L5.45106 28.9032V13.8532L18.3885 6.33533L31.3187 13.8532V28.9032Z" fill="white"></path>
<path id="Vector_2" d="M26.9636 26.3734L18.3813 31.3614L9.79199 26.3734V16.3902L18.3813 11.395L26.9636 16.3902L23.3912 18.4685L18.3813 15.5517L13.3715 18.4685V24.2879L18.3813 27.2047L23.3912 24.2879L26.9636 26.3734Z" fill="white"></path>
<path id="Vector_3" d="M50.369 22.9981V22.9407C50.3566 21.8079 50.569 20.684 50.9938 19.635C51.4186 18.5859 52.0471 17.6329 52.8426 16.8318C53.638 16.0307 54.5843 15.3977 55.626 14.97C56.6676 14.5422 57.7837 14.3283 58.9085 14.3407C60.1419 14.2973 61.3693 14.5321 62.5008 15.0282C63.6324 15.5242 64.6395 16.2688 65.4484 17.2074L63.0929 19.7372C61.9472 18.5476 60.7374 17.6732 58.8801 17.6732C56.1545 17.6732 54.1406 20.0454 54.1406 22.9192V22.9837C54.1406 25.9149 56.1545 28.2512 59.0295 28.2512C59.843 28.2354 60.6439 28.0465 61.3797 27.697C62.1156 27.3474 62.7698 26.8451 63.2993 26.2231L65.5623 28.4734C64.4383 29.826 62.9299 30.7996 61.24 31.2632C59.5502 31.7268 57.7599 31.6583 56.1099 31.0666C54.4599 30.475 53.0294 29.3888 52.0107 27.954C50.992 26.5193 50.434 24.8048 50.4117 23.0411L50.369 22.9981Z" fill="white"></path>
<path id="Vector_4" d="M68.9283 14.6704H72.707V18.3827C73.7318 15.9174 75.6176 14.2332 78.4997 14.355V18.354H78.2862C74.9985 18.354 72.707 20.504 72.707 24.8685V31.1394H68.9283V14.6704Z" fill="white"></path>
<path id="Vector_5" d="M80.3001 22.998V22.9407C80.3563 20.6543 81.2949 18.4798 82.9182 16.8796C84.5407 15.2794 86.719 14.3794 88.9898 14.371C91.2613 14.3626 93.446 15.2464 95.0799 16.8346C96.7145 18.4228 97.6695 20.5902 97.7421 22.8762V22.9407C97.7428 24.0897 97.5144 25.227 97.071 26.2857C96.6277 27.3443 95.978 28.3027 95.161 29.1044C94.3434 29.9061 93.3755 30.5347 92.3131 30.9531C91.2499 31.3716 90.1156 31.5714 88.9748 31.5407C87.8441 31.5695 86.719 31.3696 85.6665 30.9529C84.6133 30.5362 83.6547 29.9112 82.8456 29.1147C82.0372 28.3183 81.3953 27.3666 80.9576 26.3161C80.5207 25.2654 80.2965 24.1372 80.3001 22.998ZM93.9918 22.998V22.9407C94.0203 22.2573 93.9121 21.5751 93.6737 20.9347C93.4346 20.2943 93.0703 19.7089 92.602 19.2133C92.1345 18.7178 91.5716 18.3222 90.9482 18.0502C90.3255 17.7782 89.6537 17.6354 88.9748 17.6302C85.9646 17.6302 84.0433 20.0024 84.0433 22.8762V22.9407C84.0176 23.6184 84.1272 24.2943 84.3649 24.9286C84.6033 25.5629 84.9648 26.1428 85.4295 26.6338C85.8935 27.1249 86.4514 27.5172 87.0691 27.7876C87.6861 28.0581 88.3514 28.201 89.0246 28.2082C92.0704 28.2082 93.9918 25.836 93.9918 22.998Z" fill="white"></path>
<path id="Vector_6" d="M101.521 14.6704H105.285V17.2002C105.819 16.3172 106.571 15.5888 107.468 15.0863C108.365 14.5838 109.376 14.3244 110.402 14.3335C114.088 14.3335 116.223 16.8275 116.223 20.633V31.1465H112.473V21.7797C112.473 19.2212 111.206 17.7592 108.972 17.7592C106.737 17.7592 105.285 19.2929 105.285 21.8442V31.1609H101.507L101.521 14.6704Z" fill="white"></path>
<path id="Vector_7" d="M119.867 22.998V22.9407C119.923 20.6543 120.861 18.4798 122.485 16.8796C124.107 15.2794 126.286 14.3794 128.556 14.371C130.828 14.3626 133.013 15.2464 134.646 16.8346C136.281 18.4228 137.236 20.5902 137.309 22.8762V22.9407C137.309 24.0897 137.081 25.227 136.638 26.2857C136.194 27.3443 135.544 28.3027 134.728 29.1044C133.911 29.9061 132.942 30.5347 131.88 30.9531C130.816 31.3716 129.682 31.5714 128.541 31.5407C127.411 31.5695 126.286 31.3696 125.233 30.9529C124.18 30.5362 123.221 29.9112 122.412 29.1147C121.604 28.3183 120.962 27.3666 120.524 26.3161C120.087 25.2654 119.863 24.1372 119.867 22.998ZM133.558 22.998V22.9407C133.587 22.2573 133.479 21.5751 133.24 20.9347C133.001 20.2943 132.637 19.7089 132.169 19.2133C131.701 18.7178 131.138 18.3222 130.515 18.0502C129.892 17.7782 129.22 17.6354 128.541 17.6302C125.531 17.6302 123.61 20.0024 123.61 22.8762V22.9407C123.584 23.6184 123.694 24.2943 123.931 24.9286C124.17 25.5629 124.531 26.1428 124.996 26.6338C125.461 27.1249 126.018 27.5172 126.636 27.7876C127.253 28.0581 127.918 28.201 128.591 28.2082C131.616 28.2082 133.558 25.836 133.558 22.998Z" fill="white"></path>
<path id="Vector_8" d="M139.785 28.9894L141.457 26.4309C142.986 27.6605 144.862 28.3705 146.816 28.459C148.431 28.459 149.356 27.7424 149.356 26.6817V26.6172C149.356 25.3415 147.627 24.9044 145.706 24.3095C143.286 23.5929 140.589 22.6254 140.589 19.5079V19.4434C140.589 16.29 143.165 14.3909 146.417 14.3909C148.554 14.4309 150.637 15.0794 152.424 16.2614L150.936 18.9417C149.56 18.028 147.97 17.492 146.325 17.3865C144.902 17.3865 144.033 18.1032 144.033 19.0062V19.0707C144.033 20.289 145.798 20.7835 147.72 21.407C150.104 22.1595 152.801 23.2489 152.801 26.2159V26.2732C152.801 29.7419 150.132 31.4547 146.723 31.4547C144.202 31.4365 141.76 30.5686 139.785 28.9894Z" fill="white"></path>
</g>
</g>
<defs>
<clipPath id="clip0_212_2">
<rect width="153" height="43" fill="white"></rect>
</clipPath>
</defs>
</svg>

<svg class="partner-size" width="153" height="43" viewBox="0 0 153 43" fill="none" xmlns="http://www.w3.org/2000/svg"><g fill="#fff" clip-path="url(#clip0_212_2)"><path d="M18.389 0 0 10.693V32.07l18.389 10.685 18.374-10.685V10.693L18.389 0Zm12.93 28.903-12.93 7.518L5.45 28.903v-15.05L18.39 6.335l12.93 7.518v15.05Z"/><path d="m26.964 26.373-8.583 4.988-8.589-4.988V16.39l8.59-4.995 8.582 4.995-3.573 2.078-5.01-2.916-5.01 2.916v5.82l5.01 2.917 5.01-2.917 3.573 2.085ZM50.369 22.998v-.057a8.558 8.558 0 0 1 .625-3.306 8.511 8.511 0 0 1 1.849-2.803 8.44 8.44 0 0 1 2.783-1.862 8.396 8.396 0 0 1 3.282-.63 8.225 8.225 0 0 1 3.593.688 8.28 8.28 0 0 1 2.947 2.18l-2.355 2.53c-1.146-1.19-2.356-2.065-4.213-2.065-2.726 0-4.74 2.372-4.74 5.246v.065c0 2.93 2.014 5.267 4.89 5.267a5.737 5.737 0 0 0 2.35-.554 5.777 5.777 0 0 0 1.92-1.474l2.262 2.25a8.569 8.569 0 0 1-4.322 2.79 8.517 8.517 0 0 1-5.13-.196 8.581 8.581 0 0 1-4.1-3.113 8.676 8.676 0 0 1-1.598-4.913l-.043-.043ZM68.928 14.67h3.779v3.713c1.025-2.466 2.91-4.15 5.793-4.028v3.999h-.214c-3.287 0-5.579 2.15-5.579 6.515v6.27h-3.779V14.67ZM80.3 22.998v-.057a8.814 8.814 0 0 1 2.618-6.061c1.623-1.6 3.801-2.5 6.072-2.509a8.69 8.69 0 0 1 6.09 2.464 8.814 8.814 0 0 1 2.662 6.041v.065a8.646 8.646 0 0 1-.671 3.345 8.607 8.607 0 0 1-1.91 2.818 8.535 8.535 0 0 1-2.848 1.85 8.487 8.487 0 0 1-3.338.587 8.405 8.405 0 0 1-3.308-.588 8.455 8.455 0 0 1-2.821-1.838 8.537 8.537 0 0 1-2.546-6.117Zm13.692 0v-.057a5.106 5.106 0 0 0-1.39-3.727 5.052 5.052 0 0 0-3.627-1.584c-3.01 0-4.932 2.372-4.932 5.246v.065a5.08 5.08 0 0 0 1.386 3.693 5.032 5.032 0 0 0 3.596 1.574c3.045 0 4.967-2.372 4.967-5.21ZM101.521 14.67h3.764v2.53a5.952 5.952 0 0 1 2.183-2.114 5.896 5.896 0 0 1 2.934-.752c3.686 0 5.821 2.494 5.821 6.299v10.514h-3.75V21.78c0-2.559-1.267-4.02-3.501-4.02-2.235 0-3.687 1.533-3.687 4.084v9.317h-3.778l.014-16.49ZM119.867 22.998v-.057a8.81 8.81 0 0 1 2.618-6.061 8.691 8.691 0 0 1 6.071-2.509 8.688 8.688 0 0 1 6.09 2.464 8.815 8.815 0 0 1 2.663 6.041v.065a8.633 8.633 0 0 1-2.581 6.164 8.492 8.492 0 0 1-6.187 2.436 8.408 8.408 0 0 1-3.308-.588 8.456 8.456 0 0 1-2.821-1.838 8.548 8.548 0 0 1-2.545-6.117Zm13.691 0v-.057a5.117 5.117 0 0 0-1.389-3.728 5.031 5.031 0 0 0-3.628-1.583c-3.01 0-4.931 2.372-4.931 5.246v.065a5.085 5.085 0 0 0 1.386 3.693 5.041 5.041 0 0 0 1.64 1.154c.617.27 1.282.413 1.955.42 3.025 0 4.967-2.372 4.967-5.21ZM139.785 28.99l1.672-2.56a9.216 9.216 0 0 0 5.359 2.029c1.615 0 2.54-.717 2.54-1.777v-.065c0-1.276-1.729-1.713-3.65-2.308-2.42-.716-5.117-1.684-5.117-4.801v-.065c0-3.153 2.576-5.052 5.828-5.052 2.137.04 4.22.688 6.007 1.87l-1.488 2.68a9.427 9.427 0 0 0-4.611-1.554c-1.423 0-2.292.716-2.292 1.62v.064c0 1.218 1.765 1.712 3.687 2.336 2.384.753 5.081 1.842 5.081 4.809v.057c0 3.469-2.669 5.182-6.078 5.182a11.238 11.238 0 0 1-6.938-2.466Z"/></g><defs><clipPath id="clip0_212_2"><path fill="#fff" d="M0 0h153v43H0z"/></clipPath></defs></svg>
